!!!COM:	de Orto, Marbrianus
!!!CDT:	~1460///-1529//
!!!OTL:	Lamentatio Jeremie prophete
!!!AGN:	Motet
!!!SCT:	Ort2005
!!!SCA:	Ort2005
!!!voices:	4
**kern	**text	**kern	**text	**kern	**text	**kern	**text
*staff4	*staff4	*staff3	*staff3	*staff2	*staff2	*staff1	*staff1
*Ivox	*	*Ivox	*	*Ivox	*	*Ivox	*
*I"Bassus	*	*I"Tenor	*	*I"Altus	*	*I"Superius	*
*I'B	*	*I'T	*	*I'A	*	*I'S	*
*Ivox	*	*Ivox	*	*Ivox	*	*Ivox	*
*I"Bassus	*	*I"Tenor	*	*I"Altus	*	*I"Superius	*
*I'B	*	*I'T	*	*I'A	*	*I'S	*
*>[A,B,C,D,E,F,G,H,I,J]	*>[A,B,C,D,E,F,G,H,I,J]	*>[A,B,C,D,E,F,G,H,I,J]	*>[A,B,C,D,E,F,G,H,I,J]	*>[A,B,C,D,E,F,G,H,I,J]	*>[A,B,C,D,E,F,G,H,I,J]	*>[A,B,C,D,E,F,G,H,I,J]	*>[A,B,C,D,E,F,G,H,I,J]
*>A	*>A	*>A	*>A	*>A	*>A	*>A	*>A
*clefF4	*	*clefGv2	*	*clefGv2	*	*clefGv2	*
*k[]	*	*k[]	*	*k[]	*	*k[]	*
*M2/1	*	*M2/1	*	*M2/1	*	*M2/1	*
*met(C|)	*	*met(C|)	*	*met(C|)	*	*met(C|)	*
!!section: Incipit Lamentatio Jeremie prophete
!!!OMD: Incipit Lamentatio Jeremie prophete
=1-	=1-	=1-	=1-	=1-	=1-	=1-	=1-
[0AA	In-	[0A	In-	0A	In-	0A	In-
=2	=2	=2	=2	=2	=2	=2	=2
0AA]	.	0A]	.	0c	.	0e	.
=3	=3	=3	=3	=3	=3	=3	=3
[0D	.	[0A	.	[0d	.	[0f	.
=4	=4	=4	=4	=4	=4	=4	=4
1D]	.	1A]	.	1d]	.	1f]	.
1AA	-ci-	1A	-ci-	1c	-ci-	1e	-ci-
=5	=5	=5	=5	=5	=5	=5	=5
0AA;	-pit	0A;	-pit	0c;	-pit	0e;	-pit
=6	=6	=6	=6	=6	=6	=6	=6
1AA	La-	1A	La-	1c	La-	1e	La-
1AA	-men-	1A	-men-	1c	-men-	1e	-men-
=7	=7	=7	=7	=7	=7	=7	=7
[0C	-ta-	[0G	-ta-	[0c	-ta-	[0e	-ta-
=8	=8	=8	=8	=8	=8	=8	=8
1C]	.	1G]	.	1c]	.	1e]	.
1D	.	1F	.	1A	.	1f	.
=9	=9	=9	=9	=9	=9	=9	=9
0BB	-ti-	0G	-ti-	0D	-ti-	0d	-ti-
=10	=10	=10	=10	=10	=10	=10	=10
0AA;	-o	0A;	-o	0E;	-o	0c;	-o
=11	=11	=11	=11	=11	=11	=11	=11
1AA	Je-	1A	Je-	1E	Je-	1c	Je-
1AA	-re-	1A	-re-	1E	-re-	1c	-re-
=12	=12	=12	=12	=12	=12	=12	=12
[0AA	-mi-	1A	-mi-	0E	-mi-	1.c	-mi-
.	.	2G/	.	.	.	.	.
.	.	2F/	.	.	.	2d\	.
=13	=13	=13	=13	=13	=13	=13	=13
0AA]	.	0E	.	0C	.	2.e\	.
.	.	.	.	.	.	4d\	.
.	.	.	.	.	.	2c\	.
.	.	.	.	.	.	2B\	.
=14	=14	=14	=14	=14	=14	=14	=14
0FF;	-e	0F;	-e	0C;	-e	0A;	-e
=15	=15	=15	=15	=15	=15	=15	=15
0r	.	0r	.	0r	.	0r	.
=16	=16	=16	=16	=16	=16	=16	=16
0FF	Pro-	0A	Pro-	0F	Pro-	1.c	Pro-
.	.	.	.	.	.	2d\	.
=17	=17	=17	=17	=17	=17	=17	=17
0C	-phe-	0G	-phe-	1G	-phe-	0e	-phe-
.	.	.	.	1c	.	.	.
=18	=18	=18	=18	=18	=18	=18	=18
0D	.	0F	.	[0A	.	1f	.
.	.	.	.	.	.	2e\	.
.	.	.	.	.	.	2d\	.
=19	=19	=19	=19	=19	=19	=19	=19
0AA	.	0E	.	0A]	.	0c#i	.
=20	=20	=20	=20	=20	=20	=20	=20
[0Dl	-te.	[0Dl	-te.	1.F	-te.	[0dl	-te.
.	.	.	.	2G/	.	.	.
=21	=21	=21	=21	=21	=21	=21	=21
0D]	.	0D]	.	0Al	.	0d]	.
!!LO:LB:i:g=z
=22||	=22||	=22||	=22||	=22||	=22||	=22||	=22||
*>B	*>B	*>B	*>B	*>B	*>B	*>B	*>B
*clefF4	*	*clefGv2	*	*clefGv2	*	*clefGv2	*
*k[]	*	*k[]	*	*k[]	*	*k[]	*
*M2/1	*	*M2/1	*	*M2/1	*	*M2/1	*
*met(C|)	*	*met(C|)	*	*met(C|)	*	*met(C|)	*
!!section: Aleph
!!!OMD: Aleph
0AA	A-	[0A	A-	0c	A-	0e	A-
=23	=23	=23	=23	=23	=23	=23	=23
[0D	.	0A_	.	[0d	.	[0f	.
=24	=24	=24	=24	=24	=24	=24	=24
1D]	.	0A]	.	0d]	.	1f]	.
1C	.	.	.	.	.	1e	.
=25	=25	=25	=25	=25	=25	=25	=25
[0AA	-leph	1.A	-leph	0c	-leph	[0e	-leph
.	.	4G/	.	.	.	.	.
.	.	4F/	.	.	.	.	.
=26	=26	=26	=26	=26	=26	=26	=26
0AA]	.	[0E	.	[0A	.	1e]	.
.	.	.	.	.	.	1d	.
=27	=27	=27	=27	=27	=27	=27	=27
0AA	.	1E]	.	0A]	.	0c	.
.	.	1F	.	.	.	.	.
=28	=28	=28	=28	=28	=28	=28	=28
0GG;	.	0G;	.	0D;	.	0B;	.
=29	=29	=29	=29	=29	=29	=29	=29
0r	.	0r	.	0r	.	0r	.
=30	=30	=30	=30	=30	=30	=30	=30
[0GG	A-	[0G	A-	[0D	A-	1.B	A-
.	.	.	.	.	.	2c\	.
=31	=31	=31	=31	=31	=31	=31	=31
0GG]	.	0G_	.	0D]	.	[0d	.
=32	=32	=32	=32	=32	=32	=32	=32
1BB	.	0G]	.	1.D	.	1d]	.
1C	.	.	.	.	.	2c\	.
.	.	.	.	2E/	.	2B\	.
=33	=33	=33	=33	=33	=33	=33	=33
0D	.	1r	.	1F	.	0A	.
.	.	1F	.	[1D	.	.	.
=34	=34	=34	=34	=34	=34	=34	=34
1BB	.	1G	.	1D]	.	1B	.
1AA	.	1A	.	1E	.	1c	.
=35	=35	=35	=35	=35	=35	=35	=35
1GG	.	1B-	.	1G	.	1d	.
[1E	.	[1G	.	1r	.	[1B	.
=36	=36	=36	=36	=36	=36	=36	=36
1E]	.	1G]	.	1r	.	1B]	.
1AA	.	1A	.	1E	.	1A	.
=37	=37	=37	=37	=37	=37	=37	=37
0AAl	-leph.	0Al	-leph.	0El	-leph.	0Al	-leph.
!!LO:LB:i:g=z
=38||	=38||	=38||	=38||	=38||	=38||	=38||	=38||
*>C	*>C	*>C	*>C	*>C	*>C	*>C	*>C
*clefF4	*	*clefGv2	*	*clefGv2	*	*clefGv2	*
*k[]	*	*k[]	*	*k[]	*	*k[]	*
*M2/1	*	*M2/1	*	*M2/1	*	*M2/1	*
*met(C|)	*	*met(C|)	*	*met(C|)	*	*met(C|)	*
!!section: Quomodo sedet sola civitas
!!!OMD: Quomodo sedet sola civitas
[0AA	Quo-	[0A	Quo-	[0E	Quo-	0A	Quo-
=39	=39	=39	=39	=39	=39	=39	=39
0AA]	.	0A]	.	0E]	.	0c	.
=40	=40	=40	=40	=40	=40	=40	=40
1D	-mo-	1F	-mo-	1F	-mo-	1d	-mo-
1C	.	1G	.	1E	.	[1e	-do
=41	=41	=41	=41	=41	=41	=41	=41
[0AA	-do	1.A	-do	1E	-do	2e\]	.
.	.	.	.	.	.	2d\	.
.	.	.	.	2F/	.	2c\	.
.	.	4G/	.	2G/	.	2B\	.
.	.	4F/	.	.	.	.	.
=42	=42	=42	=42	=42	=42	=42	=42
0AA]	.	0E	.	0A	.	0c	.
=43	=43	=43	=43	=43	=43	=43	=43
0A	.	0D	.	0F	.	0d	.
=44	=44	=44	=44	=44	=44	=44	=44
0F	se-	0D	se-	0A	se-	0d	se-
=45	=45	=45	=45	=45	=45	=45	=45
0D	-det	0F	-det	0A	-det	0d	-det
=46	=46	=46	=46	=46	=46	=46	=46
1BB-	so-	1F	so-	1B-	so-	1d	so-
1BB-i	-la	1F	-la	1B-i	-la	1d	-la
=47	=47	=47	=47	=47	=47	=47	=47
1BB-i	ci-	1F	ci-	1B-i	ci-	1d	ci-
1BB-i	-vi-	1F	-vi-	1B-i	-vi-	1d	-vi-
=48	=48	=48	=48	=48	=48	=48	=48
0GG;	-tas	0G;	-tas	0B-i;	-tas	0d;	-tas
=49	=49	=49	=49	=49	=49	=49	=49
0r	.	0r	.	0r	.	0r	.
=50	=50	=50	=50	=50	=50	=50	=50
0GG	ple-	0G	ple-	0B-i	ple-	0d	ple-
=51	=51	=51	=51	=51	=51	=51	=51
[0AA	-ne	[0E	-ne	[0A	-ne	[0c	-ne
=52	=52	=52	=52	=52	=52	=52	=52
0AA]	.	0E]	.	0A]	.	1c]	.
.	.	.	.	.	.	1B	.
=53	=53	=53	=53	=53	=53	=53	=53
0FF	po-	0F	po-	[0c	.	0A	po-
=54	=54	=54	=54	=54	=54	=54	=54
0C	.	0E	.	0c]	.	0G	.
=55	=55	=55	=55	=55	=55	=55	=55
0AA	-pu-	0C	-pu-	1r	.	1c	-pu-
.	.	.	.	1F	po-	2B\	.
.	.	.	.	.	.	2A/	.
=56	=56	=56	=56	=56	=56	=56	=56
0GG	.	0D	.	0G	-pu-	0B	.
=57	=57	=57	=57	=57	=57	=57	=57
0G	-lo	[0C	-lo	0E	-lo	[0c	-lo
=58	=58	=58	=58	=58	=58	=58	=58
0E;	.	0C;]	.	0G;	.	0c;]	.
=59	=59	=59	=59	=59	=59	=59	=59
0r	.	0r	.	0r	.	0r	.
=60	=60	=60	=60	=60	=60	=60	=60
[0G	fa-	[0C	fa-	[0c	fa-	[0e	fa-
=61	=61	=61	=61	=61	=61	=61	=61
1G]	.	1C]	.	1c]	.	1e]	.
1G	-cta	1C	-cta	1c	-cta	1e	-cta
=62	=62	=62	=62	=62	=62	=62	=62
0C	est	0G	est	0c	est	0e	est
=63	=63	=63	=63	=63	=63	=63	=63
1AA	qua-	1A	qua-	1c	qua-	1e	qua-
1AA	-si	1A	-si	1c	-si	1e	-si
=64	=64	=64	=64	=64	=64	=64	=64
1AA	vi-	1A	vi-	1c	vi-	1e	vi-
1AA	-du-	1A	-du-	1c	-du-	1e	-du-
=65	=65	=65	=65	=65	=65	=65	=65
0AA	-a	0A	-a	0c	-a	0e	-a
=66	=66	=66	=66	=66	=66	=66	=66
[0D	do-	1A	do-	[0d	do-	[0f	do-
.	.	1A	-mi-	.	.	.	.
=67	=67	=67	=67	=67	=67	=67	=67
1D]	.	[0A	-na	1d]	.	1f]	.
1AA	-mi-	.	.	1c	-mi-	1e	-mi-
=68	=68	=68	=68	=68	=68	=68	=68
0AA	-na	0A]	.	0c	-na	0e	-na
=69	=69	=69	=69	=69	=69	=69	=69
0D	.	0F	gen-	[0A	gen-	[0d	gen-
=70	=70	=70	=70	=70	=70	=70	=70
0r	.	1D	.	1A]	.	1d]	.
.	.	1E	.	1G	.	1c	.
=71	=71	=71	=71	=71	=71	=71	=71
1D	gen-	0F	-ti-	0A	-ti-	0d	-ti-
1D	-ti-	.	.	.	.	.	.
=72	=72	=72	=72	=72	=72	=72	=72
0AA;	-um	0E;	-um	0A;	-um	0e;	-um
=73	=73	=73	=73	=73	=73	=73	=73
0r	.	0r	.	0r	.	0r	.
=74	=74	=74	=74	=74	=74	=74	=74
0AA	prin-	0E	prin-	0A	prin-	0c	prin-
=75	=75	=75	=75	=75	=75	=75	=75
[0BB-i	.	[0D	.	[0F	.	[0d	.
=76	=76	=76	=76	=76	=76	=76	=76
0BB-]	.	0D]	.	0F]	.	1d]	.
.	.	.	.	.	.	2c\	.
.	.	.	.	.	.	2d\	.
=77	=77	=77	=77	=77	=77	=77	=77
0C	-ceps	1C	-ceps	1E	.	0e	.
.	.	[1E	.	1G	.	.	.
=78	=78	=78	=78	=78	=78	=78	=78
0AA	.	1E]	.	0A	-ceps	0c	-ceps
.	.	1F	.	.	.	.	.
=79	=79	=79	=79	=79	=79	=79	=79
0GG	pro-	0G	pro-	0B	pro-	0r	.
=80	=80	=80	=80	=80	=80	=80	=80
0AA	.	0E	-vin-	0A	.	0c	pro-
=81	=81	=81	=81	=81	=81	=81	=81
1FF	-vin-	0F	-ci-	1A	-vin-	1c	-vin-
1FF	-ci-	.	.	1A	-ci-	1c	-ci-
=82	=82	=82	=82	=82	=82	=82	=82
0GG	-a-	1D	-a-	0G	-a-	0B	-a-
.	.	1E	.	.	.	.	.
=83	=83	=83	=83	=83	=83	=83	=83
0FF;	-rum	0F;	-rum	0C;	-rum	0A;	-rum
=84	=84	=84	=84	=84	=84	=84	=84
0r	.	0r	.	0r	.	0r	.
=85	=85	=85	=85	=85	=85	=85	=85
0AA	fa-	0F	fa-	0C	fa-	0A	fa-
=86	=86	=86	=86	=86	=86	=86	=86
[0GG	-cta	[0G	-cta	[0D	-cta	[0B	-cta
=87	=87	=87	=87	=87	=87	=87	=87
0GG]	.	0G]	.	0D]	.	1B]	.
.	.	.	.	.	.	2A/	.
.	.	.	.	.	.	2B\	.
=88	=88	=88	=88	=88	=88	=88	=88
0AA;	est	0E;	est	1r	.	0c;	est
.	.	.	.	1A;	est	.	.
=89	=89	=89	=89	=89	=89	=89	=89
0r	.	0r	.	0r	.	0r	.
=90	=90	=90	=90	=90	=90	=90	=90
0AA	sub	0E	sub	0A	sub	0c	sub
=91	=91	=91	=91	=91	=91	=91	=91
1D	tri-	1F	tri-	1B	tri-	1d	tri-
[1C	-bu-	[1G	-bu-	[1c	-bu-	[1e	-bu-
=92	=92	=92	=92	=92	=92	=92	=92
1C]	.	1G]	.	1c]	.	1e]	.
1D	.	1F	.	1A	.	1d	.
=93	=93	=93	=93	=93	=93	=93	=93
0AA	.	0E	.	0A	.	0c#i	.
=94	=94	=94	=94	=94	=94	=94	=94
[0Dl	-to.	[0Dl	-to.	1.F	-to.	[0dl	-to.
.	.	.	.	2G/	.	.	.
=95	=95	=95	=95	=95	=95	=95	=95
0D]	.	0D]	.	0Al	.	0d]	.
!!LO:LB:i:g=z
=96||	=96||	=96||	=96||	=96||	=96||	=96||	=96||
*>D	*>D	*>D	*>D	*>D	*>D	*>D	*>D
*clefF4	*	*clefGv2	*	*clefGv2	*	*clefGv2	*
*k[]	*	*k[]	*	*k[]	*	*k[]	*
*M2/1	*	*M2/1	*	*M2/1	*	*M2/1	*
*met(C|)	*	*met(C|)	*	*met(C|)	*	*met(C|)	*
!!section: Beth
!!!OMD: Beth ut supra (= music of Aleph)
0AA	Beth	[0A	Beth	0c	Beth	0e	Beth
=97	=97	=97	=97	=97	=97	=97	=97
[0D	.	0A_	.	[0d	.	[0f	.
=98	=98	=98	=98	=98	=98	=98	=98
1D]	.	0A]	.	0d]	.	1f]	.
1C	.	.	.	.	.	1e	.
=99	=99	=99	=99	=99	=99	=99	=99
[0AA	.	1.A	.	0c	.	[0e	.
.	.	4G/	.	.	.	.	.
.	.	4F/	.	.	.	.	.
=100	=100	=100	=100	=100	=100	=100	=100
0AA]	.	[0E	.	[0A	.	1e]	.
.	.	.	.	.	.	1d	.
=101	=101	=101	=101	=101	=101	=101	=101
0AA	.	1E]	.	0A]	.	0c	.
.	.	1F	.	.	.	.	.
=102	=102	=102	=102	=102	=102	=102	=102
0GG;	.	0G;	.	0D;	.	0B;	.
=103	=103	=103	=103	=103	=103	=103	=103
0r	.	0r	.	0r	.	0r	.
=104	=104	=104	=104	=104	=104	=104	=104
[0GG	Beth	[0G	Beth	[0D	Beth	1.B	Beth
.	.	.	.	.	.	2c\	.
=105	=105	=105	=105	=105	=105	=105	=105
0GG]	.	0G_	.	0D]	.	[0d	.
=106	=106	=106	=106	=106	=106	=106	=106
1BB	.	0G]	.	1.D	.	1d]	.
1C	.	.	.	.	.	2c\	.
.	.	.	.	2E/	.	2B\	.
=107	=107	=107	=107	=107	=107	=107	=107
0D	.	1r	.	1F	.	0A	.
.	.	1F	.	[1D	.	.	.
=108	=108	=108	=108	=108	=108	=108	=108
1BB	.	1G	.	1D]	.	1B	.
1AA	.	1A	.	1E	.	1c	.
=109	=109	=109	=109	=109	=109	=109	=109
1GG	.	1B-	.	1G	.	1d	.
[1E	.	[1G	.	1r	.	[1B	.
=110	=110	=110	=110	=110	=110	=110	=110
1E]	.	1G]	.	1r	.	1B]	.
1AA	.	1A	.	1E	.	1A	.
=111	=111	=111	=111	=111	=111	=111	=111
0AAl	.	0Al	.	0El	.	0Al	.
!!LO:LB:i:g=z
=112||	=112||	=112||	=112||	=112||	=112||	=112||	=112||
*>E	*>E	*>E	*>E	*>E	*>E	*>E	*>E
*clefF4	*	*clefGv2	*	*clefGv2	*	*clefGv2	*
*k[]	*	*k[]	*	*k[]	*	*k[]	*
*M2/1	*	*M2/1	*	*M2/1	*	*M2/1	*
*met(C|)	*	*met(C|)	*	*met(C|)	*	*met(C|)	*
!!section: Plorans ploravit
!!!OMD: Plorans ploravit
[0AA	Plo-	[0A	Plo-	[0E	Plo-	[0A	Plo-
=113	=113	=113	=113	=113	=113	=113	=113
0AA]	.	1A]	.	1E]	.	1A]	.
.	.	2G/	.	2F/	.	1B	.
.	.	2F/	.	2G/	.	.	.
=114	=114	=114	=114	=114	=114	=114	=114
0AA	-rans	0E	-rans	0A	-rans	0c	-rans
=115	=115	=115	=115	=115	=115	=115	=115
0A	.	0D	.	0F	.	0d	.
=116	=116	=116	=116	=116	=116	=116	=116
1r	.	1r	.	1r	.	1r	.
1D	plo-	1F	plo-	1A	plo-	1d	plo-
=117	=117	=117	=117	=117	=117	=117	=117
0BB-	-ra-	0F	-ra-	0B-	-ra-	0d	-ra-
=118	=118	=118	=118	=118	=118	=118	=118
1BB-i	-vit	1F	-vit	1B-i	-vit	1d	-vit
1BB-i	in	1D	in	1B-i	in	1d	in
=119	=119	=119	=119	=119	=119	=119	=119
0BB-i	no-	0F	no-	0B-i	no-	0d	no-
=120	=120	=120	=120	=120	=120	=120	=120
1C	.	1E	.	1G	.	1c	.
1AA	.	1C	.	1F	.	[1c	.
=121	=121	=121	=121	=121	=121	=121	=121
0GG	.	0D	.	0G	.	1c]	.
.	.	.	.	.	.	1B	.
=122	=122	=122	=122	=122	=122	=122	=122
0G	-cte,	[0C	-cte,	0E	-cte,	[0c	-cte,
=123	=123	=123	=123	=123	=123	=123	=123
0E;	.	0C;]	.	0G;	.	0c;]	.
=124	=124	=124	=124	=124	=124	=124	=124
0r	.	0r	.	0r	.	0r	.
=125	=125	=125	=125	=125	=125	=125	=125
0C	et	0E	et	0G	et	0c	et
=126	=126	=126	=126	=126	=126	=126	=126
1FF	la-	1F	la-	1A	la-	1c	la-
1FF	-cri-	1F	-cri-	1A	-cri-	1c	-cri-
=127	=127	=127	=127	=127	=127	=127	=127
[0FF	-me	1.F	-me	0A	-me	0c	-me
.	.	2E/	.	.	.	.	.
=128	=128	=128	=128	=128	=128	=128	=128
0FF]	.	1C	.	2.c\	e-	1r	.
.	.	.	.	4B\	.	.	.
.	.	1D	.	1A	.	1c	e-
=129	=129	=129	=129	=129	=129	=129	=129
0GG	e-	0E	e-	0G	.	0B	.
=130	=130	=130	=130	=130	=130	=130	=130
0FF;	-jus	0F;	-jus	0C;	-jus	0A;	-jus
=131	=131	=131	=131	=131	=131	=131	=131
0r	.	0r	.	0r	.	0r	.
=132	=132	=132	=132	=132	=132	=132	=132
1FF	in	1F	in	1c	in	1A	in
1FF	ma-	1F	ma-	1c	ma-	1A	ma-
=133	=133	=133	=133	=133	=133	=133	=133
[0FF	-xil-	[0F	-xil-	[0A	-xil-	[0c	-xil-
=134	=134	=134	=134	=134	=134	=134	=134
0FF]	.	0F]	.	0A]	.	1c]	.
.	.	.	.	.	.	1B	.
=135	=135	=135	=135	=135	=135	=135	=135
0FF	-lis	0F	-lis	[0c	-lis	0A	-lis
=136	=136	=136	=136	=136	=136	=136	=136
0C	.	0E	.	1c]	.	0G	.
.	.	.	.	1G	.	.	.
=137	=137	=137	=137	=137	=137	=137	=137
0AA	e-	0C	e-	1A	e-	1c	e-
.	.	.	.	1F	.	2B\	.
.	.	.	.	.	.	2A/	.
=138	=138	=138	=138	=138	=138	=138	=138
0GG	.	0D	.	0G	.	0B	.
=139	=139	=139	=139	=139	=139	=139	=139
0G	-jus	[0C	-jus	0E	-jus	[0c	-jus
=140	=140	=140	=140	=140	=140	=140	=140
0E;	.	0C;]	.	0G;	.	0c;]	.
=141	=141	=141	=141	=141	=141	=141	=141
0r	.	0r	.	0r	.	0r	.
=142	=142	=142	=142	=142	=142	=142	=142
0F	non	0F	non	0A	non	0c	non
=143	=143	=143	=143	=143	=143	=143	=143
1BB-	est	1F	est	1B-	est	1d	est
1BB-i	qui	1F	qui	1B-i	qui	1d	qui
=144	=144	=144	=144	=144	=144	=144	=144
1BB-i	con-	1F	con-	1B-i	con-	1d	con-
1BB-i	-so-	1D	-so-	1B-i	-so-	1d	-so-
=145	=145	=145	=145	=145	=145	=145	=145
0BB-i	-le-	0F	-le-	1B-i	-le-	1.d	-le-
.	.	.	.	2A/	.	.	.
.	.	.	.	2G/	.	2c\	.
=146	=146	=146	=146	=146	=146	=146	=146
1.D	-tur	1F	-tur	1F	.	0A	-tur
.	.	1G	.	1D	.	.	.
2C/	.	.	.	.	.	.	.
=147	=147	=147	=147	=147	=147	=147	=147
0AA	e-	1A	e-	0E	-tur	1c	e-
.	.	2G/	.	.	.	2B\	.
.	.	2F/	.	.	.	2A/	.
=148	=148	=148	=148	=148	=148	=148	=148
0E	.	0G	.	1r	.	0B	.
.	.	.	.	1E	e-	.	.
=149	=149	=149	=149	=149	=149	=149	=149
0AA;	-am	0A;	-am	0E;	-am	0A;	-am
=150	=150	=150	=150	=150	=150	=150	=150
0r	.	0r	.	0r	.	0r	.
=151	=151	=151	=151	=151	=151	=151	=151
0AA	ex	0A	ex	0E	ex	0c	ex
=152	=152	=152	=152	=152	=152	=152	=152
1BB-i	om-	1G	om-	1D	om-	1d	om-
1AA	-ni-	1A	-ni-	1E	-ni-	1c	-ni-
=153	=153	=153	=153	=153	=153	=153	=153
0FF	-bus	0A	-bus	0F	-bus	0c	-bus
=154	=154	=154	=154	=154	=154	=154	=154
0C	ca-	0G	ca-	1r	.	0e	ca-
.	.	.	.	1c	ca-	.	.
=155	=155	=155	=155	=155	=155	=155	=155
1D	.	1F	.	1B	.	1d	.
[1C	-ris	[1G	-ris	[1c	-ris	[1e	-ris
=156	=156	=156	=156	=156	=156	=156	=156
1C]	.	1G]	.	1c]	.	1e]	.
1BB	e-	1D	e-	1G	e-	[1d	e-
=157	=157	=157	=157	=157	=157	=157	=157
0AA	.	0E	.	0A	.	1d]	.
.	.	.	.	.	.	1c#i	.
=158	=158	=158	=158	=158	=158	=158	=158
[0Dl	-jus:	[0Dl	-jus:	1.F	-jus:	[0dl	-jus:
.	.	.	.	2G/	.	.	.
=159	=159	=159	=159	=159	=159	=159	=159
0D]	.	0D]	.	0Al	.	0d]	.
!!LO:LB:i:g=z
=160||	=160||	=160||	=160||	=160||	=160||	=160||	=160||
*>F	*>F	*>F	*>F	*>F	*>F	*>F	*>F
*clefF4	*	*clefGv2	*	*clefGv2	*	*clefGv2	*
*k[]	*	*k[]	*	*k[]	*	*k[]	*
*M2/1	*	*M2/1	*	*M2/1	*	*M2/1	*
*met(C|)	*	*met(C|)	*	*met(C|)	*	*met(C|)	*
!!section: Omnes amici ejus
!!!OMD: Omnes amici ejus
[0D	om-	[0F	om-	0A	om-	[0d	om-
=161	=161	=161	=161	=161	=161	=161	=161
0D]	.	0F]	.	1.A	-nas	0d]	.
.	.	.	.	4G/	.	.	.
.	.	.	.	4F/	.	.	.
=162	=162	=162	=162	=162	=162	=162	=162
1C	-nas	1G	-nas	1E	.	1e	-nas
1C	a-	1G	a-	1C	a-	1e	a-
=163	=163	=163	=163	=163	=163	=163	=163
1BB	-mi-	1G	-mi-	1D	-mi-	1d	-mi-
1BB	-ci	1G	-ci	1D	-ci	1d	-ci
=164	=164	=164	=164	=164	=164	=164	=164
0AA	e-	0A	e-	0E	e-	0c	e-
=165	=165	=165	=165	=165	=165	=165	=165
0AA	-jus	0A	-jus	0E	-jus	0c	-jus
=166	=166	=166	=166	=166	=166	=166	=166
1BB	spre-	1G	spre-	1D	spre-	0r	.
1AA	.	1A	.	1E	.	.	.
=167	=167	=167	=167	=167	=167	=167	=167
0GG	-ve-	0B-	-ve-	0G	-ve-	0d	spre-
=168	=168	=168	=168	=168	=168	=168	=168
0AA	-runt	1A	.	1E	.	1c	-ve-
.	.	2G/	.	1C	.	1e	.
.	.	2F/	.	.	.	.	.
=169	=169	=169	=169	=169	=169	=169	=169
0BB-i	e-	0G	-runt	0D	-runt	0d	-runt
=170	=170	=170	=170	=170	=170	=170	=170
[0AA	.	0A	e-	[0E	e-	1c	e-
.	.	.	.	.	.	[1e	.
=171	=171	=171	=171	=171	=171	=171	=171
0AA]	.	1.A	-am,	0E]	.	2e\]	.
.	.	.	.	.	.	2d\	.
.	.	.	.	.	.	2c\	.
.	.	2B\	.	.	.	2B\	.
=172	=172	=172	=172	=172	=172	=172	=172
0FF;	-am,	0c;	.	0F;	-am,	0A;	-am,
=173	=173	=173	=173	=173	=173	=173	=173
1r	.	1r	.	1r	.	1r	.
1FF	et	1F	et	1c	et	1A	et
=174	=174	=174	=174	=174	=174	=174	=174
1FF	fa-	1F	fa-	1c	fa-	1A	fa-
1FF	-cti	1F	-cti	2B\	-cti	1A	-cti
.	.	.	.	2A/	.	.	.
=175	=175	=175	=175	=175	=175	=175	=175
0GG	sunt	0D	sunt	0G	sunt	0B	sunt
=176	=176	=176	=176	=176	=176	=176	=176
0AA	e-	0C	.	1.E	e-	0c	e-
.	.	.	.	2F/	.	.	.
=177	=177	=177	=177	=177	=177	=177	=177
0GG	-i	1D	e-	0G	-i	0B	-i
.	.	1D	-i	.	.	.	.
=178	=178	=178	=178	=178	=178	=178	=178
1r	.	1G	in-	1B-	in-	1r	.
[1AA	in-	1E	.	1A	.	1c	in-
=179	=179	=179	=179	=179	=179	=179	=179
2AA/]	.	1D	-i-	1F	-i-	1d	-i-
2BB/	-i-	.	.	.	.	.	.
[1C	-mi-	[1G	-mi-	[1c	-mi-	[1e	-mi-
=180	=180	=180	=180	=180	=180	=180	=180
1C]	.	1G]	.	1c]	.	1e]	.
1D	.	1F	.	1A	.	[1d	.
=181	=181	=181	=181	=181	=181	=181	=181
0AA	.	0E	.	0A	.	1d]	.
.	.	.	.	.	.	1c#i	.
=182	=182	=182	=182	=182	=182	=182	=182
[0Dl	-ci.	[0Dl	-ci.	1.F	-ci.	[0dl	-ci.
.	.	.	.	2G/	.	.	.
=183	=183	=183	=183	=183	=183	=183	=183
0D]	.	0D]	.	0Al	.	0d]	.
!!LO:LB:i:g=z
=184||	=184||	=184||	=184||	=184||	=184||	=184||	=184||
*>G	*>G	*>G	*>G	*>G	*>G	*>G	*>G
*clefF4	*	*clefGv2	*	*clefGv2	*	*clefGv2	*
*k[]	*	*k[]	*	*k[]	*	*k[]	*
*M2/1	*	*M2/1	*	*M2/1	*	*M2/1	*
*met(C|)	*	*met(C|)	*	*met(C|)	*	*met(C|)	*
!!section: Ghimel
!!!OMD: Ghimel ut supra (= music of Aleph)
0AA	Ghi-	[0A	Ghi-	0c	Ghi-	0e	Ghi-
=185	=185	=185	=185	=185	=185	=185	=185
[0D	.	0A_	.	[0d	.	[0f	.
=186	=186	=186	=186	=186	=186	=186	=186
1D]	.	0A]	.	0d]	.	1f]	.
1C	.	.	.	.	.	1e	.
=187	=187	=187	=187	=187	=187	=187	=187
[0AA	-mel	1.A	-mel	0c	-mel	[0e	-mel
.	.	4G/	.	.	.	.	.
.	.	4F/	.	.	.	.	.
=188	=188	=188	=188	=188	=188	=188	=188
0AA]	.	[0E	.	[0A	.	1e]	.
.	.	.	.	.	.	1d	.
=189	=189	=189	=189	=189	=189	=189	=189
0AA	.	1E]	.	0A]	.	0c	.
.	.	1F	.	.	.	.	.
=190	=190	=190	=190	=190	=190	=190	=190
0GG;	.	0G;	.	0D;	.	0B;	.
=191	=191	=191	=191	=191	=191	=191	=191
0r	.	0r	.	0r	.	0r	.
=192	=192	=192	=192	=192	=192	=192	=192
[0GG	Ghi-	[0G	Ghi-	[0D	Ghi-	1.B	Ghi-
.	.	.	.	.	.	2c\	.
=193	=193	=193	=193	=193	=193	=193	=193
0GG]	.	0G_	.	0D]	.	[0d	.
=194	=194	=194	=194	=194	=194	=194	=194
1BB	.	0G]	.	1.D	.	1d]	.
1C	.	.	.	.	.	2c\	.
.	.	.	.	2E/	.	2B\	.
=195	=195	=195	=195	=195	=195	=195	=195
0D	.	1r	.	1F	.	0A	.
.	.	1F	.	[1D	.	.	.
=196	=196	=196	=196	=196	=196	=196	=196
1BB	.	1G	.	1D]	.	1B	.
1AA	.	1A	.	1E	.	1c	.
=197	=197	=197	=197	=197	=197	=197	=197
1GG	.	1B-	.	1G	.	1d	.
[1E	.	[1G	.	1r	.	[1B	.
=198	=198	=198	=198	=198	=198	=198	=198
1E]	.	1G]	.	1r	.	1B]	.
1AA	.	1A	.	1E	.	1A	.
=199	=199	=199	=199	=199	=199	=199	=199
0AAl	-mel.	0Al	-mel.	0El	-mel.	0Al	-mel.
!!LO:LB:i:g=z
=200||	=200||	=200||	=200||	=200||	=200||	=200||	=200||
*>H	*>H	*>H	*>H	*>H	*>H	*>H	*>H
*clefF4	*	*clefGv2	*	*clefGv2	*	*clefGv2	*
*k[]	*	*k[]	*	*k[]	*	*k[]	*
*M2/1	*	*M2/1	*	*M2/1	*	*M2/1	*
*met(C|)	*	*met(C|)	*	*met(C|)	*	*met(C|)	*
!!section: Migravit Judas
!!!OMD: Migravit Judas
[0AA	Mi-	[0A	Mi-	[0E	Mi-	0A	Mi-
=201	=201	=201	=201	=201	=201	=201	=201
0AA]	.	0A]	.	0E]	.	0c	.
=202	=202	=202	=202	=202	=202	=202	=202
1D	-gra-	1F	-gra-	1F	-gra-	1d	-gra-
1C	.	1G	.	1E	.	[1e	-vit
=203	=203	=203	=203	=203	=203	=203	=203
[0AA	-vit	1.A	-vit	1E	-vit	2e\]	.
.	.	.	.	.	.	2d\	.
.	.	.	.	2F/	.	2c\	.
.	.	4G/	.	2G/	.	2B\	.
.	.	4F/	.	.	.	.	.
=204	=204	=204	=204	=204	=204	=204	=204
0AA]	.	0E	.	0A	.	0c	Ju-
=205	=205	=205	=205	=205	=205	=205	=205
0A	Ju-	0D	Ju-	0F	Ju-	0d	-das
=206	=206	=206	=206	=206	=206	=206	=206
0F	-das	0D	-das	1.A	-das	0r	.
.	.	.	.	4B\	.	.	.
.	.	.	.	4c\	.	.	.
=207	=207	=207	=207	=207	=207	=207	=207
0D	pro-	0A	pro-	0d	pro-	0f	pro-
=208	=208	=208	=208	=208	=208	=208	=208
1D	-pter	1A	-pter	1d	-pter	1f	-pter
1D	af-	1A	af-	1d	af-	1f	af-
=209	=209	=209	=209	=209	=209	=209	=209
1D	-fli-	1A	-fli-	1d	-fli-	1f	-fli-
1D	-cti-	1A	-cti-	1d	-cti-	1f	-cti-
=210	=210	=210	=210	=210	=210	=210	=210
1D	-o-	0A	-o-	0d	-o-	0f	-o-
1F	.	.	.	.	.	.	.
=211	=211	=211	=211	=211	=211	=211	=211
0C;	-nem,	0G;	-nem,	0c;	-nem,	0e;	-nem,
=212	=212	=212	=212	=212	=212	=212	=212
0r	.	0r	.	0r	.	0r	.
=213	=213	=213	=213	=213	=213	=213	=213
0G	et	0C	et	0c	et	0e	et
=214	=214	=214	=214	=214	=214	=214	=214
0C	mul-	1G	mul-	1c	mul-	1e	mul-
.	.	1G	-ti-	1c	-ti-	1e	-ti-
=215	=215	=215	=215	=215	=215	=215	=215
0AA	-ti-	1A	-tu-	1c	-tu-	1e	-tu-
.	.	1A	-di-	1c	-di-	1e	-di-
=216	=216	=216	=216	=216	=216	=216	=216
1AA	-tu-	0A	-nem	[0c	-nem	0e	-nem
1AA	-di-	.	.	.	.	.	.
=217	=217	=217	=217	=217	=217	=217	=217
0AA	-nem	[0A	ser-	0c]	.	[0f	ser-
=218	=218	=218	=218	=218	=218	=218	=218
[0D	ser-	1A]	.	[0d	ser-	1f]	.
.	.	1A	-vi-	.	.	1e	-vi-
=219	=219	=219	=219	=219	=219	=219	=219
1D]	.	0A	-tu-	1d]	.	0e	-tu-
1AA	.	.	.	1c	-vi-	.	.
=220	=220	=220	=220	=220	=220	=220	=220
0AA	-vi-	0F	.	0c	-tu-	0f	.
=221	=221	=221	=221	=221	=221	=221	=221
0r	.	1D	.	[0A	.	1d	.
.	.	1E	.	.	.	1c	.
=222	=222	=222	=222	=222	=222	=222	=222
0D	-tu-	0F	.	1A]	.	0d	.
.	.	.	.	1G	.	.	.
=223	=223	=223	=223	=223	=223	=223	=223
0AA	.	0E	.	0A	.	0e	.
=224	=224	=224	=224	=224	=224	=224	=224
0AA;	-tis:	0E;	-tis:	0A;	-tis:	0c;	-tis:
=225	=225	=225	=225	=225	=225	=225	=225
0r	.	0r	.	0r	.	0r	.
=226	=226	=226	=226	=226	=226	=226	=226
0F	ha-	0F	ha-	0A	ha-	0c	ha-
=227	=227	=227	=227	=227	=227	=227	=227
1BB-	-bi-	1F	-bi-	1B-	-bi-	1d	-bi-
1BB-i	-ta-	1F	-ta-	1B-i	-ta-	1d	-ta-
=228	=228	=228	=228	=228	=228	=228	=228
1BB-i	-vit	1F	-vit	1B-i	-vit	1d	-vit
1BB-i	in-	1D	in-	1B-i	in-	1d	in-
=229	=229	=229	=229	=229	=229	=229	=229
0BB-i	-ter	0F	-ter	1B-i	-ter	1.d	-ter
.	.	.	.	2A/	.	.	.
.	.	.	.	2G/	.	2c\	.
=230	=230	=230	=230	=230	=230	=230	=230
1.D	gen-	0F	gen-	1F	gen-	0A	gen-
.	.	.	.	1D	.	.	.
2C/	.	.	.	.	.	.	.
=231	=231	=231	=231	=231	=231	=231	=231
0AA	.	1A	.	0E	.	1c	.
.	.	2G/	.	.	.	2B\	.
.	.	2F/	.	.	.	2A/	.
=232	=232	=232	=232	=232	=232	=232	=232
0E	.	0G	.	1r	.	0B	.
.	.	.	.	1E	.	.	.
=233	=233	=233	=233	=233	=233	=233	=233
0AA;	-tes,	0A;	-tes,	0E;	-tes,	0A;	-tes,
=234	=234	=234	=234	=234	=234	=234	=234
0r	.	0r	.	0r	.	0r	.
=235	=235	=235	=235	=235	=235	=235	=235
0AA	nec	0A	nec	0E	nec	0c	nec
=236	=236	=236	=236	=236	=236	=236	=236
1BB-i	in-	1G	in-	1D	in-	1d	in-
1AA	.	1A	.	1E	-ve-	1c	.
=237	=237	=237	=237	=237	=237	=237	=237
0FF	-ve-	0A	-ve-	0F	-nit	0c	-ve-
=238	=238	=238	=238	=238	=238	=238	=238
0C	-nit	0G	-nit	1r	.	0e	-nit
.	.	.	.	1c	re-	.	.
=239	=239	=239	=239	=239	=239	=239	=239
1D	re-	1F	re-	1B	.	1d	re-
[1C	.	[1G	.	[1c	.	[1e	.
=240	=240	=240	=240	=240	=240	=240	=240
1C]	.	1G]	.	1c]	.	1e]	.
1BB	.	1D	-qui-	1G	.	[1d	.
=241	=241	=241	=241	=241	=241	=241	=241
0AA	-qui-	0E	-em:	0A	-qui-	1d]	.
.	.	.	.	.	.	1c#i	-qui-
=242	=242	=242	=242	=242	=242	=242	=242
[0Dl	-em:	[0Dl	.	1.F	-em:	[0dl	-em:
.	.	.	.	2G/	.	.	.
=243	=243	=243	=243	=243	=243	=243	=243
0D]	.	0D]	.	0Al	.	0d]	.
!!LO:LB:i:g=z
=244||	=244||	=244||	=244||	=244||	=244||	=244||	=244||
*>I	*>I	*>I	*>I	*>I	*>I	*>I	*>I
*clefF4	*	*clefGv2	*	*clefGv2	*	*clefGv2	*
*k[]	*	*k[]	*	*k[]	*	*k[]	*
*M2/1	*	*M2/1	*	*M2/1	*	*M2/1	*
*met(C|)	*	*met(C|)	*	*met(C|)	*	*met(C|)	*
!!section: Omnes persecutores ejus
!!!OMD: Omnes persecutores ejus
0D	o-	0F	o-	0A	o-	0d	o-
=245	=245	=245	=245	=245	=245	=245	=245
1D	-mnes	1F	-mnes	1A	-mnes	1d	-mnes
1D	per-	1F	per-	2A/	per-	1d	per-
.	.	.	.	4G/	.	.	.
.	.	.	.	4F/	.	.	.
=246	=246	=246	=246	=246	=246	=246	=246
1C	-se-	1G	-se-	1E	-se-	1e	-se-
1C	-cu-	1G	-cu-	1C	-cu-	1e	-cu-
=247	=247	=247	=247	=247	=247	=247	=247
1BB	-to-	1G	-to-	1D	-to-	1d	-to-
1BB	-res	1G	-res	1D	-res	1d	-res
=248	=248	=248	=248	=248	=248	=248	=248
0AA	e-	0A	e-	0E	e-	0c	e-
=249	=249	=249	=249	=249	=249	=249	=249
0AA	-jus	0A	-jus	0E	-jus	0c	-jus
=250	=250	=250	=250	=250	=250	=250	=250
1BB-i	ap-	1G	ap-	1D	ap-	0r	.
1AA	-pre-	1A	-pre-	1E	-pre-	.	.
=251	=251	=251	=251	=251	=251	=251	=251
0GG	-hen-	0B-i	-hen-	0G	-hen-	1d	ap-
.	.	.	.	.	.	1d	-pre-
=252	=252	=252	=252	=252	=252	=252	=252
0AA	-de-	1A	-de-	1E	-de-	1c	-hen-
.	.	2G/	.	1C	.	1e	-de-
.	.	2F/	.	.	.	.	.
=253	=253	=253	=253	=253	=253	=253	=253
0BB-i	-runt	0G	-runt	0D	-runt	0d	-runt
=254	=254	=254	=254	=254	=254	=254	=254
[0AA	e-	0A	e-	[0E	e-	1c	e-
.	.	.	.	.	.	[1e	.
=255	=255	=255	=255	=255	=255	=255	=255
0AA]	.	1.A	.	0E]	.	2e\]	.
.	.	.	.	.	.	2d\	.
.	.	.	.	.	.	2c\	.
.	.	2B\	.	.	.	2B\	.
=256	=256	=256	=256	=256	=256	=256	=256
0FF;	-am	0c;	-am	0F;	-am	0A;	-am
=257	=257	=257	=257	=257	=257	=257	=257
0r	.	0r	.	0r	.	0r	.
=258	=258	=258	=258	=258	=258	=258	=258
0FF	in-	0F	in-	1c	in-	0A	in-
.	.	.	.	2B\	.	.	.
.	.	.	.	2A/	.	.	.
=259	=259	=259	=259	=259	=259	=259	=259
0GG	.	0D	.	0G	.	0B	.
=260	=260	=260	=260	=260	=260	=260	=260
0AA	.	0C	.	1.E	-ter	0c	.
.	.	.	.	2F/	.	.	.
=261	=261	=261	=261	=261	=261	=261	=261
0GG	-ter	0D	-ter	0G	.	0B	-ter
=262	=262	=262	=262	=262	=262	=262	=262
1r	.	1G	an-	1B-	an-	1r	.
[1AA	an-	1E	.	1A	.	1c	an-
=263	=263	=263	=263	=263	=263	=263	=263
2AA/]	.	1D	-gu-	1F	-gu-	1d	.
2BB/	.	.	.	.	.	.	.
[1C	-gu-	[1G	.	[1c	.	[1e	-gu-
=264	=264	=264	=264	=264	=264	=264	=264
1C]	.	1G]	.	1c]	.	1e]	.
1D	.	1F	.	1A	.	[1d	.
=265	=265	=265	=265	=265	=265	=265	=265
0AA	-sti-	0E	-sti-	0A	-sti-	1d]	.
.	.	.	.	.	.	1c#i	-sti-
=266	=266	=266	=266	=266	=266	=266	=266
[0Dl	-as.	[0Dl	-as.	1.F	-as.	[0dl	-as.
.	.	.	.	2G/	.	.	.
=267	=267	=267	=267	=267	=267	=267	=267
0D]	.	0D]	.	0Al	.	0d]	.
!!LO:LB:i:g=z
=268||	=268||	=268||	=268||	=268||	=268||	=268||	=268||
*>J	*>J	*>J	*>J	*>J	*>J	*>J	*>J
*clefF4	*	*clefGv2	*	*clefGv2	*	*clefGv2	*
*k[]	*	*k[]	*	*k[]	*	*k[]	*
*M2/1	*	*M2/1	*	*M2/1	*	*M2/1	*
*met(C|)	*	*met(C|)	*	*met(C|)	*	*met(C|)	*
!!section: Jerusalem, Jerusalem
!!!OMD: Jerusalem, Jerusalem (begins with the music of Aleph)
0AA	Je-	[0A	Je-	0c	Je-	0e	Je-
=269	=269	=269	=269	=269	=269	=269	=269
[0D	-ru-	0A]	.	[0d	-ru-	[0f	.
=270	=270	=270	=270	=270	=270	=270	=270
1D]	.	[0A	-ru-	0d]	.	1f]	.
1C	.	.	.	.	.	1e	.
=271	=271	=271	=271	=271	=271	=271	=271
0AA	.	0A]	.	0c	.	[0e	-ru-
=272	=272	=272	=272	=272	=272	=272	=272
[0AA	-sa-	[0E	-sa-	[0A	.	1e]	.
.	.	.	.	.	.	1d	.
=273	=273	=273	=273	=273	=273	=273	=273
0AA]	.	1E]	.	0A]	-sa-	0c	-sa-
.	.	1F	.	.	.	.	.
=274	=274	=274	=274	=274	=274	=274	=274
0GG;	-lem,	0G;	-lem,	0D;	-lem,	0B;	-lem,
=275	=275	=275	=275	=275	=275	=275	=275
0r	.	0r	.	0r	.	0r	.
=276	=276	=276	=276	=276	=276	=276	=276
[0GG	Je-	0G	Je-	[0D	Je-	1.B	Je-
.	.	.	.	.	.	2c\	.
=277	=277	=277	=277	=277	=277	=277	=277
0GG]	.	[0G	-ru-	0D]	.	[0d	-ru-
=278	=278	=278	=278	=278	=278	=278	=278
1BB	-ru-	0G]	.	1.D	-ru-	1d]	.
1C	.	.	.	.	.	2c\	.
.	.	.	.	2E/	.	2B\	.
=279	=279	=279	=279	=279	=279	=279	=279
0D	-sa-	1r	.	1F	.	0A	.
.	.	1F	-sa-	[1D	-sa-	.	.
=280	=280	=280	=280	=280	=280	=280	=280
1BB	.	1G	.	1D]	.	1B	-sa-
1AA	.	1A	.	1E	.	1c	.
=281	=281	=281	=281	=281	=281	=281	=281
1GG	.	1B-i	.	1G	.	1d	.
[1E	.	[1G	.	1r	.	[1B	.
=282	=282	=282	=282	=282	=282	=282	=282
1E]	.	1G]	.	1r	.	1B]	.
1AA	.	1A	.	1E	.	1A	.
=283	=283	=283	=283	=283	=283	=283	=283
0AAl;	-lem,	0Al;	-lem,	0El;	-lem,	0Al;	-lem,
=284	=284	=284	=284	=284	=284	=284	=284
0AA	con-	0A	con-	0c	con-	0e	con-
=285	=285	=285	=285	=285	=285	=285	=285
[0C	-ver-	[0G	-ver-	[0c	-ver-	[0e	-ver-
=286	=286	=286	=286	=286	=286	=286	=286
1C]	.	1G]	.	1c]	.	1e]	.
1D	.	1F	.	1A	.	1f	.
=287	=287	=287	=287	=287	=287	=287	=287
0BB	-te-	0G	-te-	0D	-te-	0d	-te-
=288	=288	=288	=288	=288	=288	=288	=288
0AA;	-re	0A;	-re	0E;	-re	0c;	-re
=289	=289	=289	=289	=289	=289	=289	=289
0r	.	0r	.	0r	.	0r	.
=290	=290	=290	=290	=290	=290	=290	=290
0AA	ad	0A	ad	0E	ad	0c	ad
=291	=291	=291	=291	=291	=291	=291	=291
0AA	Do-	1A	Do-	0E	Do-	1.c	Do-
.	.	2G/	.	.	.	.	.
.	.	2F/	.	.	.	2d\	.
=292	=292	=292	=292	=292	=292	=292	=292
0AA	-mi-	0E	-mi-	0C	-mi-	2.e\	-mi-
.	.	.	.	.	.	4d\	.
.	.	.	.	.	.	2c\	.
.	.	.	.	.	.	2B\	.
=293	=293	=293	=293	=293	=293	=293	=293
0FF;	-num	0F;	-num	0C;	-num	0A;	-num
=294	=294	=294	=294	=294	=294	=294	=294
0r	.	0r	.	0r	.	0r	.
=295	=295	=295	=295	=295	=295	=295	=295
0FF	De-	0A	De-	0F	De-	1.c	De-
.	.	.	.	.	.	2d\	.
=296	=296	=296	=296	=296	=296	=296	=296
0C	-um	0G	-um	1G	-um	0e	-um
.	.	.	.	1c	.	.	.
=297	=297	=297	=297	=297	=297	=297	=297
0D	tu-	0F	tu-	[0A	tu-	1f	tu-
.	.	.	.	.	.	2e\	.
.	.	.	.	.	.	2d\	.
=298	=298	=298	=298	=298	=298	=298	=298
0AA	.	0E	.	0A]	.	0c#i	.
=299	=299	=299	=299	=299	=299	=299	=299
[0Dl	-um.	[0Dl	-um.	1.F	-um.	[0dl	-um.
.	.	.	.	2G/	.	.	.
=300	=300	=300	=300	=300	=300	=300	=300
0D]	.	0D]	.	0Al	.	0d]	.
==	==	==	==	==	==	==	==
*-	*-	*-	*-	*-	*-	*-	*-
!!!RDF**kern: l=long note in original notation
!!!RDF**kern: i=editorial accidental
!!!RDF**kern: V=start of tuplet marker
!!!RDF**kern: Z=end of tuplet marker
!!!ENC:	Jesse Rodin 8/6/2013
!!!END:	2015/06/16/
!!!EED:	Jesse Rodin
!!!EEV:	2015/06/16/
!!!ONB:	Translated from MusicXML and edited on 2015/06/16/ by Craig Sapp
!!xmuse2ps: C^@{COM}^i2I150v85,85,85,100z16
!!muse2ps: C^@{COM}^i2I150v90,90,90,130c160z18
